src/images/logo-dark.svg

<svg height="33" viewBox="0 0 179 33" width="179" xmlns="http://www.w3.org/2000/svg"><g fill="#2b314f" fill-rule="evenodd"><path d="m16.5 0c-9.11269837 0-16.5 7.38730163-16.5 16.5 0 9.1126984 7.38730163 16.5 16.5 16.5 9.1126984 0 16.5-7.3873016 16.5-16.5.0000468-4.3760864-1.738326-8.57295318-4.8326864-11.66731357-3.0943604-3.09436038-7.2912272-4.83273322-11.6673136-4.83268643zm6.7863131 23.3916435-6.895525 3.9872059v.0012351h-.0012351-.0010586v-.0012351l-6.89852434-3.9873823v-13.79704879l.00705731.00370509 6.88917343-3.97838431 4.4203486 2.46776626.0021172-.00123503v6.22913818l-2.1514222-1.23503v-3.75343239l-2.2691028-1.29307635-4.7479844 2.74617724v11.4367302l4.7485137 2.7467065 4.7481608-2.7373556.0227598-4.6999947-6.747145-3.9150449 2.1678304-1.1402855 6.7220916 3.9203379zm-5.5973321-7.3396065 1.6616445.9546781-4.9380025 2.8114575v-5.6682581l1.7345113 1.0233105v1.7013419z" fill-rule="nonzero"/><text font-family="Avenir-Heavy, Avenir" font-size="18" font-weight="600" letter-spacing="1.20000005"><tspan x="46" y="22">Band Protoco</tspan> <tspan x="175.024001" y="22">l</tspan></text></g></svg>

<?xml version="1.0" encoding="UTF-8"?>
<svg width="179px" height="33px" viewBox="0 0 179 33" version="1.1" xmlns="http://www.w3.org/2000/svg" xmlns:xlink="http://www.w3.org/1999/xlink">
    <!-- Generator: Sketch 54.1 (76490) - https://sketchapp.com -->
    <title>logo-dark</title>
    <desc>Created with Sketch.</desc>
    <g id="logo-dark" stroke="none" stroke-width="1" fill="none" fill-rule="evenodd">
        <g id="logo" fill="#2B314F">
            <path d="M16.5,0 C7.38730163,-5.57991845e-16 1.11601757e-15,7.38730163 0,16.5 C-1.11597931e-15,25.6126984 7.38730163,33 16.5,33 C25.6126984,33 33,25.6126984 33,16.5 C33.0000468,12.1239136 31.261674,7.92704682 28.1673136,4.83268643 C25.0729532,1.73832605 20.8760864,-4.67938047e-05 16.5,0 Z M23.2863131,23.3916435 L16.3907881,27.3788494 L16.3907881,27.3800845 L16.389553,27.3800845 L16.3884944,27.3800845 L16.3884944,27.3788494 L9.48997006,23.3914671 L9.48997006,9.59441831 L9.49702737,9.5981234 L16.3862008,5.61973909 L20.8065494,8.08750535 L20.8086666,8.08627032 L20.8086666,14.3154085 L18.6572444,13.0803785 L18.6572444,9.32694611 L18.6572444,9.32694611 L16.3881416,8.03386976 L11.6401572,10.780047 L11.6401572,22.2167772 L16.3886709,24.9634837 L21.1368317,22.2261281 L21.1595915,17.5261334 L14.4124465,13.6110885 L16.5802769,12.470803 L23.3023685,16.3911409 L23.2863131,23.3916435 Z M17.688981,16.052037 L19.3506255,17.0067151 L14.412623,19.8181726 L14.412623,14.1499145 L16.1471343,15.173225 L16.1471343,16.8745669 L17.688981,16.052037 Z" id="Shape" fill-rule="nonzero"></path>
            <text id="Band-Protocol" font-family="Avenir-Heavy, Avenir" font-size="18" font-weight="600" letter-spacing="1.20000005">
                <tspan x="46" y="22">Band Protoco</tspan>
                <tspan x="175.024001" y="22">l</tspan>
            </text>
        </g>
    </g>
</svg>
